assets/icons/trophy1.svg

<svg height="151.618" viewBox="0 0 151.618 151.618" width="151.618" xmlns="http://www.w3.org/2000/svg"><path d="m212.832 408.184-30.738-8.884-30.738 8.884a3.609 3.609 0 0 0 -.355 1.688v18.36h62.187v-18.36a3.609 3.609 0 0 0 -.356-1.688z" fill="#646d73" transform="translate(-106.285 -281.056)"/><path d="m287.093 428.232v-18.36a3.609 3.609 0 0 0 -.355-1.688l-30.738-8.884v28.932z" fill="#474f54" transform="translate(-180.191 -281.056)"/><path d="m147.176 8.884h-22.7c.039-1.5.191-2.914.191-4.442a4.4 4.4 0 0 0 -4.439-4.442h-88.838a4.4 4.4 0 0 0 -4.442 4.442c0 1.528.152 2.941.19 4.442h-22.696a4.439 4.439 0 0 0 -4.442 4.442v11.252c0 24.8 19.868 44.95 44.352 46.247 5.101 7.023 11.155 12.235 18.042 15.175a66.372 66.372 0 0 1 -16.346 39.711 3.152 3.152 0 0 0 -.978 1.421h61.477a3.155 3.155 0 0 0 -.978-1.421c-3.02-3.111-15.279-18.039-16.346-39.711 6.889-2.937 12.979-8.15 18.084-15.175 24.463-1.318 44.31-21.454 44.31-46.242v-11.257a4.439 4.439 0 0 0 -4.442-4.442zm-138.292 15.694v-6.81h18.635c1.153 14.681 4.337 30.232 11.028 43.444-16.773-3.777-29.663-18.734-29.663-36.634zm133.85 0c0 17.89-12.879 32.841-29.639 36.626 6.638-13.214 9.84-28.612 11-43.437h18.635z" fill="#fed843"/><path d="m327.367 8.884h-22.7c.039-1.5.191-2.914.191-4.442a4.4 4.4 0 0 0 -4.439-4.442h-44.419v127.128h30.738a3.155 3.155 0 0 0 -.978-1.421c-3.021-3.11-15.28-18.035-16.346-39.711 6.889-2.937 12.979-8.15 18.084-15.175 24.463-1.318 44.31-21.454 44.31-46.242v-11.253a4.439 4.439 0 0 0 -4.442-4.442zm-4.442 15.694c0 17.89-12.879 32.841-29.639 36.626 6.639-13.214 9.84-28.612 11-43.437h18.635z" fill="#fabe2c" transform="translate(-180.191)"/><path d="m217.392 104.481-7.092-3.681-7.088 3.683a4.44 4.44 0 0 1 -6.429-4.668l1.3-7.891-5.682-5.609a4.439 4.439 0 0 1 2.455-7.556l7.895-1.189 3.574-7.144c1.51-3.01 6.437-3.01 7.947 0l3.574 7.144 7.895 1.189a4.439 4.439 0 0 1 2.455 7.556l-5.682 5.609 1.3 7.891a4.44 4.44 0 0 1 -6.429 4.668z" fill="#fabe2c" transform="translate(-134.495 -47.981)"/><path d="m263.088 104.48a4.44 4.44 0 0 0 6.429-4.668l-1.3-7.891 5.682-5.609a4.439 4.439 0 0 0 -2.455-7.556l-7.895-1.189-3.574-7.144a4.347 4.347 0 0 0 -3.975-2.257v32.634z" fill="#ff9100" transform="translate(-180.191 -47.98)"/><path d="m196.513 490.884h-71.071a4.442 4.442 0 1 1 0-8.884h71.071a4.442 4.442 0 0 1 0 8.884z" fill="#474f54" transform="translate(-85.168 -339.266)"/><path d="m291.535 482h-35.535v8.884h35.535a4.442 4.442 0 0 0 0-8.884z" fill="#32393f" transform="translate(-180.191 -339.266)"/></svg>

<svg id="trophy" xmlns="http://www.w3.org/2000/svg" width="151.618" height="151.618" viewBox="0 0 151.618 151.618">
  <g id="Group_2061" data-name="Group 2061" transform="translate(44.715 118.244)">
    <path id="Path_4117" data-name="Path 4117" d="M212.832,408.184,182.094,399.3l-30.738,8.884a3.609,3.609,0,0,0-.355,1.688v18.36h62.187v-18.36A3.609,3.609,0,0,0,212.832,408.184Z" transform="translate(-151 -399.3)" fill="#646d73"/>
  </g>
  <path id="Path_4118" data-name="Path 4118" d="M287.093,428.232v-18.36a3.609,3.609,0,0,0-.355-1.688L256,399.3v28.932Z" transform="translate(-180.191 -281.056)" fill="#474f54"/>
  <path id="Path_4119" data-name="Path 4119" d="M147.176,8.884h-22.7c.039-1.5.191-2.914.191-4.442A4.4,4.4,0,0,0,120.228,0H31.39a4.4,4.4,0,0,0-4.442,4.442c0,1.528.152,2.941.19,4.442H4.442A4.439,4.439,0,0,0,0,13.326V24.578c0,24.8,19.868,44.95,44.352,46.247C49.453,77.848,55.507,83.06,62.394,86a66.372,66.372,0,0,1-16.346,39.711,3.152,3.152,0,0,0-.978,1.421h61.477a3.155,3.155,0,0,0-.978-1.421C102.549,122.6,90.29,107.672,89.223,86c6.889-2.937,12.979-8.15,18.084-15.175,24.463-1.318,44.31-21.454,44.31-46.242V13.326a4.439,4.439,0,0,0-4.442-4.442ZM8.884,24.578v-6.81H27.519C28.672,32.449,31.856,48,38.547,61.212,21.774,57.435,8.884,42.478,8.884,24.578Zm133.85,0c0,17.89-12.879,32.841-29.639,36.626,6.638-13.214,9.84-28.612,11-43.437h18.635Z" fill="#fed843"/>
  <path id="Path_4120" data-name="Path 4120" d="M327.367,8.884h-22.7c.039-1.5.191-2.914.191-4.442A4.4,4.4,0,0,0,300.419,0H256V127.128h30.738a3.155,3.155,0,0,0-.978-1.421c-3.021-3.11-15.28-18.035-16.346-39.711,6.889-2.937,12.979-8.15,18.084-15.175,24.463-1.318,44.31-21.454,44.31-46.242V13.326a4.439,4.439,0,0,0-4.442-4.442Zm-4.442,15.694c0,17.89-12.879,32.841-29.639,36.626,6.639-13.214,9.84-28.612,11-43.437h18.635Z" transform="translate(-180.191)" fill="#fabe2c"/>
  <g id="Trophy_31_" transform="translate(56.584 20.186)">
    <g id="Group_2062" data-name="Group 2062">
      <path id="Path_4121" data-name="Path 4121" d="M217.392,104.481,210.3,100.8l-7.088,3.683a4.44,4.44,0,0,1-6.429-4.668l1.3-7.891-5.682-5.609a4.439,4.439,0,0,1,2.455-7.556l7.895-1.189,3.574-7.144c1.51-3.01,6.437-3.01,7.947,0l3.574,7.144,7.895,1.189a4.439,4.439,0,0,1,2.455,7.556l-5.682,5.609,1.3,7.891a4.44,4.44,0,0,1-6.429,4.668Z" transform="translate(-191.079 -68.167)" fill="#fabe2c"/>
    </g>
  </g>
  <path id="Path_4122" data-name="Path 4122" d="M263.088,104.48a4.44,4.44,0,0,0,6.429-4.668l-1.3-7.891,5.682-5.609a4.439,4.439,0,0,0-2.455-7.556l-7.895-1.189-3.574-7.144A4.347,4.347,0,0,0,256,68.166V100.8Z" transform="translate(-180.191 -47.98)" fill="#ff9100"/>
  <g id="Group_2063" data-name="Group 2063" transform="translate(35.832 142.734)">
    <path id="Path_4123" data-name="Path 4123" d="M196.513,490.884H125.442a4.442,4.442,0,1,1,0-8.884h71.071a4.442,4.442,0,0,1,0,8.884Z" transform="translate(-121 -482)" fill="#474f54"/>
  </g>
  <path id="Path_4124" data-name="Path 4124" d="M291.535,482H256v8.884h35.535a4.442,4.442,0,0,0,0-8.884Z" transform="translate(-180.191 -339.266)" fill="#32393f"/>
</svg>
